X:0829
T:The Branch of the Willow.
N:irregular metre left as in the book
M:6/8
L:1/8
Q:3/8=60
I: ||
Z:Jack Campin * www.campin.me.uk * 2009
K:E Minor
He3 HB2E/F/|GFE B2e/f/|gfe f2B2|Eed c>Bc|c2 B2 z2
(B/g/)|fge ^d2(B/e/)|ABG F2A/B/|c2(B//A//)(G//F//) B2(G/F/)|G2E2z2|]

